Source Code/mun/assets/flags/ARE.svg

<svg viewBox="0 0 40.5 40.5" xmlns="http://www.w3.org/2000/svg"><path d="m39.34 13.5h-28.69v-11.08a20.25 20.25 0 0 1 28.69 11.08z" fill="#00732f"/><path d="m40.5 20.25a20.19 20.19 0 0 1 -1.16 6.75h-28.69v-13.5h28.69a20.19 20.19 0 0 1 1.16 6.75z" fill="#fff"/><path d="m39.34 27a20.25 20.25 0 0 1 -28.69 11.08v-11.08z"/><path d="m10.65 2.42v35.66a20.25 20.25 0 0 1 0-35.66z" fill="#f00"/></svg>

<svg xmlns="http://www.w3.org/2000/svg" viewBox="0 0 40.5 40.5"><defs><style>.cls-1{fill:#00732f;}.cls-2{fill:#fff;}.cls-3{fill:red;}</style></defs><g id="Ebene_2" data-name="Ebene 2"><g id="Ńëîé_1" data-name="Ńëîé 1"><path class="cls-1" d="M39.34,13.5H10.65V2.42A20.25,20.25,0,0,1,39.34,13.5Z"/><path class="cls-2" d="M40.5,20.25A20.19,20.19,0,0,1,39.34,27H10.65V13.5H39.34A20.19,20.19,0,0,1,40.5,20.25Z"/><path d="M39.34,27A20.25,20.25,0,0,1,10.65,38.08V27Z"/><path class="cls-3" d="M10.65,2.42V38.08a20.25,20.25,0,0,1,0-35.66Z"/></g></g></svg>
